X:1
T:Coina, The
T:My Gentle Harp
M:3/4
L:1/8
R:Air
B:P.M. Haverty – One Hundred Irish Airs vol. 3 (1859, No. 236, p. 115)
Z:AK/Fiddler’s Companion
K:Eb
"Andante Affetuoso"EEE|[G3e3] (d{d}cB)|(AG2) (eed)|c2 (BG) {G}(F>E)|
E3 EEE|e3 d{d}c>|AG2 (eed)|{d}c2 (BG) {G}(F>E)|E3||
(Bc>B)|B2 (Ge) (c>B)|(GE2) (B,E>F)|G2 (E/F/G) (F>E)|E3 (Bc>B)|
B2 (Ge) {d}c>B|(GE2) (B,E>F)|G2 (3EFG {G}(F>E)|E3||

